icons/glyphs/glyph-desktop.svg

<?xml version="1.0" encoding="UTF-8" standalone="no"?><svg height="22" viewBox="0 0 22 22" width="22" xmlns="http://www.w3.org/2000/svg"><sodipodi:namedview/><metadata><rdf:RDF><cc:Work><dc:format>image/svg+xml</dc:format><dc:type/><dc:title/></cc:Work></rdf:RDF></metadata><g transform="translate(-.552734 -.580078)"><path d="m1.8203125 1.7949219c-.702573 0-1.26757812.5669581-1.26757812 1.2695312v17.0312499c0 .702573.56500512 1.269531 1.26757812 1.269531h19.4628905c.702573 0 1.269531-.566958 1.269531-1.269531v-17.0312499c0-.7025731-.566958-1.2695312-1.269531-1.2695312zm1.9335937 2.2519531h15.7636718c.468533 0 .845703.3771704.845703.8457031v13.5253909c0 .468532-.37717.845703-.845703.845703h-15.7636718c-.468532 0-.8457031-.377171-.8457031-.845703v-13.5253909c0-.4685327.3771712-.8457031.8457031-.8457031z" fill="#fff" stroke-linecap="square" stroke-width="1.491364"/><path d="m7.5364627 13.643984h8.0325433l2.128263 4.077813h-12.2890692z" fill="#fff" stroke-width=".377953"/></g></svg>

<?xml version="1.0" encoding="UTF-8" standalone="no"?>
<!-- Created with Inkscape (http://www.inkscape.org/) -->

<svg
   xmlns:dc="http://purl.org/dc/elements/1.1/"
   xmlns:cc="http://creativecommons.org/ns#"
   xmlns:rdf="http://www.w3.org/1999/02/22-rdf-syntax-ns#"
   xmlns:svg="http://www.w3.org/2000/svg"
   xmlns="http://www.w3.org/2000/svg"
   xmlns:sodipodi="http://sodipodi.sourceforge.net/DTD/sodipodi-0.dtd"
   xmlns:inkscape="http://www.inkscape.org/namespaces/inkscape"
   width="22"
   height="22"
   viewBox="0 0 22 22"
   version="1.1"
   id="svg8"
   inkscape:version="0.92+devel 15697 custom"
   sodipodi:docname="glyph-desktop.svg">
  <defs
     id="ol-defs">
    <style
       id="current-color-scheme">      .ColorScheme-Text {
        color:#d0d0d0;
        stop-color:#d0d0d0;
      }
      .ColorScheme-Background {
        color:#212121;
        stop-color:#212121;
      }
      .ColorScheme-Highlight {
        color:#0039a9;
        stop-color:#0039a9;
      }
      .ColorScheme-ViewText {
        color:#d0d0d0;
        stop-color:#d0d0d0;
      }
      .ColorScheme-ViewBackground {
        color:#19191b;
        stop-color:#19191b;
      }
      .ColorScheme-ViewHover {
        color:#005cc7;
        stop-color:#005cc7;
      }
      .ColorScheme-ViewFocus{
        color:#002466;
        stop-color:#002466;
      }
      .ColorScheme-ButtonText {
        color:#d0d0d0;
        stop-color:#d0d0d0;
      }
      .ColorScheme-ButtonBackground {
        color:#232323;
        stop-color:#232323;                             
      }                                                 
      .ColorScheme-ButtonHover {                        
        color:#005cc7;                                  
        stop-color:#005cc7;                             
      }                                                 
      .ColorScheme-ButtonFocus{                         
        color:#0039a9;                                  
        stop-color:#0039a9;                             
      }</style>
  </defs>
  <sodipodi:namedview
     id="base"
     pagecolor="#002266"
     bordercolor="#ffffff"
     borderopacity="0.46666667"
     inkscape:pageopacity="0"
     inkscape:pageshadow="2"
     inkscape:zoom="13.081476"
     inkscape:cx="16.621911"
     inkscape:cy="12.794693"
     inkscape:document-units="px"
     inkscape:current-layer="svg8"
     inkscape:document-rotation="0"
     showgrid="false"
     inkscape:showpageshadow="false"
     borderlayer="true"
     units="px"
     fit-margin-top="0"
     fit-margin-left="0"
     fit-margin-right="0"
     fit-margin-bottom="0"
     inkscape:window-width="1920"
     inkscape:window-height="1054"
     inkscape:window-x="0"
     inkscape:window-y="0"
     inkscape:window-maximized="1" />
  <metadata
     id="metadata5">
    <rdf:RDF>
      <cc:Work
         rdf:about="">
        <dc:format>image/svg+xml</dc:format>
        <dc:type
           rdf:resource="http://purl.org/dc/dcmitype/StillImage" />
        <dc:title></dc:title>
      </cc:Work>
    </rdf:RDF>
  </metadata>
  <g
     id="g4292"
     inkscape:label="#glyph"
     transform="translate(-0.55273419,-0.58007795)">
    <path
       id="rect4264"
       d="m 1.8203125,1.7949219 c -0.702573,0 -1.26757812,0.5669581 -1.26757812,1.2695312 V 20.095703 c 0,0.702573 0.56500512,1.269531 1.26757812,1.269531 H 21.283203 c 0.702573,0 1.269531,-0.566958 1.269531,-1.269531 V 3.0644531 c 0,-0.7025731 -0.566958,-1.2695312 -1.269531,-1.2695312 z M 3.7539062,4.046875 H 19.517578 c 0.468533,0 0.845703,0.3771704 0.845703,0.8457031 V 18.417969 c 0,0.468532 -0.37717,0.845703 -0.845703,0.845703 H 3.7539062 c -0.468532,0 -0.8457031,-0.377171 -0.8457031,-0.845703 V 4.8925781 c 0,-0.4685327 0.3771712,-0.8457031 0.8457031,-0.8457031 z"
       style="opacity:1;vector-effect:none;fill:#ffffff;stroke-width:1.49136364;stroke-linecap:square"
       inkscape:connector-curvature="0"
       inkscape:label="#tv"
       sodipodi:nodetypes="cssssssccsssssssss" />
    <path
       style="fill:#ffffff;stroke-width:0.37795275"
       d="m 7.5364627,13.643984 h 8.0325433 l 2.128263,4.077813 H 5.4081998 Z"
       id="rect4267"
       inkscape:connector-curvature="0"
       sodipodi:nodetypes="ccccc"
       inkscape:label="#dock" />
  </g>
</svg>
